dist/assets/images/icons/socials/vk.svg

<svg width="40" height="40" viewBox="0 0 40 40" fill="none" xmlns="http://www.w3.org/2000/svg">
<path fill-rule="evenodd" clip-rule="evenodd" d="M20 0C8.95431 0 0 8.95431 0 20C0 31.0457 8.95431 40 20 40C31.0457 40 40 31.0457 40 20C40 8.95431 31.0457 0 20 0ZM30.6553 15C31.4494 15 31.6163 15.4016 31.4493 15.9479V15.9481C31.1155 17.4509 27.9168 21.8771 27.9168 21.8771C27.6385 22.3141 27.5272 22.5326 27.9168 23.0244C28.0538 23.2129 28.3463 23.4944 28.681 23.8165C29.0254 24.1478 29.4144 24.5221 29.7247 24.8823C30.8526 26.1287 31.7025 27.1798 31.9392 27.9045C32.1556 28.6316 31.7806 29 31.0304 29H28.4048C27.7016 29 27.3475 28.6131 26.5827 27.7774C26.2583 27.4229 25.86 26.9877 25.3298 26.4669C23.7719 24.9916 23.1044 24.8004 22.7147 24.8004C22.1864 24.8004 22.0283 24.9474 22.0283 25.6842V27.997C22.0283 28.6316 21.822 29 20.1528 29C17.3712 29 14.3146 27.341 12.1447 24.2813C8.89027 19.8005 8 16.4125 8 15.7295C8 15.3469 8.15003 15 8.90021 15H11.5258C12.1969 15 12.4493 15.2885 12.701 16.0027C13.9853 19.6767 16.1503 22.8879 17.0404 22.8879C17.3742 22.8879 17.5272 22.7368 17.5272 21.9042V18.1063C17.4669 17.0254 17.0825 16.5579 16.7978 16.2117C16.6219 15.9978 16.4841 15.8302 16.4841 15.5928C16.4841 15.3043 16.735 15 17.1521 15H21.2781C21.8345 15 22.0283 15.2922 22.0283 15.9479V21.0572C22.0283 21.6036 22.2698 21.7946 22.4367 21.7946C22.7706 21.7946 23.0487 21.6036 23.6607 21.0025C25.5522 18.9261 26.8875 15.7295 26.8875 15.7295C27.0544 15.3469 27.362 15 28.0297 15H30.6553Z" fill="#101112"/>
</svg>

<svg width="40" height="40" fill="none" xmlns="http://www.w3.org/2000/svg"><path fill-rule="evenodd" clip-rule="evenodd" d="M20 0C8.954 0 0 8.954 0 20s8.954 20 20 20 20-8.954 20-20S31.046 0 20 0zm10.655 15c.794 0 .961.402.794.948-.334 1.503-3.532 5.93-3.532 5.93-.279.436-.39.655 0 1.146.137.189.43.47.764.793.344.33.733.705 1.044 1.065 1.128 1.247 1.977 2.298 2.214 3.022.217.728-.158 1.096-.909 1.096h-2.625c-.703 0-1.058-.387-1.822-1.223a32.01 32.01 0 00-1.253-1.31c-1.558-1.475-2.226-1.667-2.615-1.667-.529 0-.687.147-.687.884v2.313c0 .635-.206 1.003-1.875 1.003-2.782 0-5.838-1.659-8.008-4.719C8.89 19.801 8 16.413 8 15.73c0-.383.15-.73.9-.73h2.626c.67 0 .923.289 1.175 1.003 1.284 3.674 3.45 6.885 4.34 6.885.333 0 .486-.151.486-.984v-3.798c-.06-1.08-.445-1.548-.73-1.894-.175-.214-.313-.382-.313-.62 0-.288.251-.592.668-.592h4.126c.556 0 .75.292.75.948v5.11c0 .546.242.737.409.737.334 0 .612-.191 1.224-.793 1.891-2.076 3.226-5.272 3.226-5.272.167-.383.475-.73 1.143-.73h2.625z" fill="#101112"/></svg>
